!!!!SEGMENT: pl-gd--ee-1638--002-008_marenzio-luca--motettorum-pro-festis-totius-anni-in-festo-annunc-b-m-virg-gabriel-locutus.krn
!!!cenid: 15xx:1011
!!!COM: Marenzio, Luca
!!!COM-rismID: pe30003955
!!!CDT: ~1553-1599/08/22
!!!CNT: Italian
!!!GTL: Motettorum pro festis totius anni
!!!OTL: In festo Annunc. B. M. Virg./Gabriel Locutus
!!!OMV: 008
!!!PDT: 1588
!!!AGN:
!!!SMS-siglum: PL-GD
!!!SMS-shelfmark: Ee 1638
!!!SMS-shelfwork: 002-008 G
!!!SMS-variant:
!!!SMS-altvar:
!!!NIFC-rismSourceID: 1001202747
!!!NIFC-rismChildID: 990039238
!!!NIFC-islandoraID: pl-gd:57883
!!!URL-pdf-islandora: https://repozytorium.nifc.pl/islandora/object/pl-gd%3A57883/datastream/PDF/view
!!!URL-scan: https://polish.musicsources.pl/pl/lokalizacje/galeria/klocki-introligatorskie/655 @EN{Scan on Polish Music Sources Website} @PL{Skany w portalu Dziedzictwo Muzyki Polskiej w otwartym dostępie}
!!!IIIF: https://repozytorium.nifc.pl/islandora/object/pl-gd%3A57883/datastream/IIIF/view
!!!ONB-nifc: UWAGA: Cantus: s. 620 (lewa), Altus: s. 468 (lewa), Tenor: s. 316 (lewa), Bassus: s. 164 (lewa)
!!!AIN: 1 alto 1 bass 1 soprn 1 tenor
!!!key:
**kern	**text	**kern	**text	**kern	**text	**kern	**text
*part4	*part4	*part3	*part3	*part2	*part2	*part1	*part1
*staff4	*staff4	*staff3	*staff3	*staff2	*staff2	*staff1	*staff1
*I"BASSO	*	*I"TENORE	*	*I"ALTO	*	*I"CANTO	*
*I'B.	*	*I'T.	*	*I'A.	*	*I'C.	*
*Ibass	*	*Itenor	*	*Ialto	*	*Isoprn	*
*ICvox	*	*ICvox	*	*ICvox	*	*ICvox	*
*clefF4	*	*clefC4	*	*clefC3	*	*clefC1	*
*k[]	*	*k[]	*	*k[]	*	*k[]	*
*G:	*	*G:	*	*G:	*	*G:	*
*M4/2	*	*M4/2	*	*M4/2	*	*M4/2	*
*met(C)	*	*met(C)	*	*met(C)	*	*met(C)	*
=1-	=1-	=1-	=1-	=1-	=1-	=1-	=1-
*xywh-#164:1080,577,3428,807	*	*	*	*	*	*	*
*	*	*xywh-#316:1207,465,3312,859	*	*	*	*	*
*	*	*	*	*xywh-#468:1045,517,3399,843	*	*	*
*	*	*	*	*	*	*xywh-#620:1051,487,3469,833	*
!	!	!LO:TX:b:i:t=GAbriel	!	!	!	!LO:TX:b:i:t=GAbriel	!
!LO:TX:a:i:t=In festo Annunc. B.M.Virg.	!	!LO:TX:a:i:t=In festo Annunc. B.M.Virg.	!	!LO:TX:a:i:t=In festo Annunc. B.M.Virg.	!	!LO:TX:a:i:t=In festo Annunc. B.M.Virg.	!
0r	.	0r	.	1.d	GA-	0r	.
.	.	.	.	2B/	-bri-	.	.
=2-	=2-	=2-	=2-	=2-	=2-	=2-	=2-
1.G	GA-	0r	.	1d	-el	0r	.
.	.	.	.	2.e\	An-	.	.
2E\	-bri-	.	.	.	.	.	.
.	.	.	.	4e\	-ge-	.	.
=3-	=3-	=3-	=3-	=3-	=3-	=3-	=3-
1G	-el	0r	.	2d\	-lus	2r	.
.	.	.	.	2B/	Lo-	2g/	Lo-
2.A\	An-	.	.	2c/	-cu-	2e/	-cu-
.	.	.	.	2A/	-tus	2f/	-tus
4A\	-ge-	.	.	.	.	.	.
=4-	=4-	=4-	=4-	=4-	=4-	=4-	=4-
1G	-lus	2r	.	2B/	eſt	2g/	eſt
.	.	2G/	Lo-	2B/	Ma-	2d/	Ma-
1r	.	2E/	-cu-	1c	-ri-	1e	-ri-
.	.	2F/	-tus	.	.	.	.
=5-	=5-	=5-	=5-	=5-	=5-	=5-	=5-
1r	.	2G/	eſt	1B	-(ae)	2d/	-(ae)
.	.	2G/	Ma-	.	.	1g	di-
*	*ij	*	*	*	*	*	*
1.D	GA-	1.A	-ri-	0.d	di-	.	.
.	.	.	.	.	.	4f/	.
.	.	.	.	.	.	4e/	.
=6-	=6-	=6-	=6-	=6-	=6-	=6-	=6-
.	.	.	.	.	.	4f/	.
.	.	.	.	.	.	4d/	.
2BB/	-bri-	2D/	-(ae)	.	.	2.g/	.
1D	-el	2r	.	.	.	.	.
.	.	.	.	.	.	8f/	.
!	!	!	!	!	!	!LO:SIC:v:t=custos f#	!
.	.	.	.	.	.	8e/	.
*	*	*	*	*	*	*xywh-#620:1062,1192,3521,676	*
!	!	!	!	!	!	!LO:LB:g=original	!
*	*	*	*ij	*	*	*	*
.	.	2d\	Lo-	.	.	2f#X/	.
=7-	=7-	=7-	=7-	=7-	=7-	=7-	=7-
!	!	!	!	!LO:SIC:v:t=custos g	!	!	!
2.E\	An-	2B\	-cu-	1G	-cens	1g	-cens
*	*	*	*	*xywh-#468:1040,1218,3409,676	*	*	*
!	!	!	!	!LO:LB:g=original	!	!	!
.	.	2c\	-tus	.	.	.	.
4E\	-ge-	.	.	.	.	.	.
!LO:SIC:v:t=custos G	!	!	!	!	!	!	!
2D/	-lus	2d\	eſt	1r	.	2r	.
*xywh-#164:1122,1242,3385,701	*	*	*	*	*	*	*
!LO:LB:g=original	!	!	!	!	!	!	!
*	*Xij	*	*	*	*	*	*
2G\	Lo-	2B\	Ma-	.	.	2b\	lo-
=8-	=8-	=8-	=8-	=8-	=8-	=8-	=8-
2E\	-cu-	1c	-ri-	1r	.	2g/	-cu-
2F\	-tus	.	.	.	.	2a\	-tus
2G\	eſt	1B	-(ae)	2r	.	2b\	eſt
*	*	*	*Xij	*	*	*	*
2G\	Ma-	.	.	2g\	lo-	2dd\	Ma-
=9-	=9-	=9-	=9-	=9-	=9-	=9-	=9-
!	!	!LO:SIC:v:t=custos d	!	!	!	!	!
1A	-ri-	1r	.	2e\	-cu-	1cc	-ri-
*	*	*xywh-#316:1080,1100,3422,790	*	*	*	*	*
!	!	!LO:LB:g=original	!	!	!	!	!
.	.	.	.	2f\	-tus	.	.
1G	-(ae)	1.d	Ga-	2g\	eſt	1b	-(ae)
.	.	.	.	2d\	Ma-	.	.
=10-	=10-	=10-	=10-	=10-	=10-	=10-	=10-
0.G	di-	.	.	1.B	-ri-	1.dd	Ga-
.	.	2B\	-bri-	.	.	.	.
.	.	1d	-el	.	.	.	.
.	.	.	.	2G/	-(ae)	2b\	-bri-
=11-	=11-	=11-	=11-	=11-	=11-	=11-	=11-
.	.	2.B\	An-	1.g	Ga-	1dd	-el
.	.	4B\	-ge-	.	.	.	.
1C	-cens	1c	-lus	.	.	2.ee\	An-
.	.	.	.	2e\	-bri-	.	.
.	.	.	.	.	.	4ee\	-ge-
=12-	=12-	=12-	=12-	=12-	=12-	=12-	=12-
2r	.	2r	.	1g	-el	4dd\	-lus
.	.	.	.	.	.	4cc\	.
*	*	*	*ij	*	*	*	*
1G	Ga-	1B	Ga-	.	.	4b\	.
.	.	.	.	.	.	4a\	.
.	.	.	.	2.e\	An-	1b	.
2E\	-bri-	2G/	-bri-	.	.	.	.
.	.	.	.	4e\	-ge-	.	.
=13-	=13-	=13-	=13-	=13-	=13-	=13-	=13-
1G	-el	1B	-el	1d	-lus	2r	.
!	!	!	!	!	!	!LO:SIC:v:t=custos e	!
.	.	.	.	.	.	2g/	lo-
*	*	*	*	*	*	*xywh-#620:1086,1735,3504,676	*
!	!	!	!	!	!	!LO:LB:g=original	!
2.A\	An-	2.c\	An-	1r	.	2e/	-cu-
.	.	.	.	.	.	2fny/	-tus
4A\	-ge-	4c\	-ge-	.	.	.	.
=14-	=14-	=14-	=14-	=14-	=14-	=14-	=14-
2G\	-lus	2B\	-lus	2r	.	2g/	eſt
*	*	*	*Xij	*	*	*	*
2C/	lo-	2E/	lo-	2e\	lo-	2g/	Ma-
2AA/	-cu-	2F/	-cu-	2c/	-cu-	1a	-ri-
2BB/	-tus	2D/	-tus	2d\	-tus	.	.
=15-	=15-	=15-	=15-	=15-	=15-	=15-	=15-
!LO:SIC:v:t=custos C	!	!	!	!	!	!	!
2C/	eſt	2G/	eſt	2e\	eſt	2g/	-(ae)
*xywh-#164:1108,1816,3371,651	*	*	*	*	*	*	*
!LO:LB:g=original	!	!	!	!	!	!	!
2C/	Ma-	2G/	Ma-	2e\	Ma-	2cc\	lo-
1D	-ri-	1F	-ri-	1f	-ri-	2a\	-cu-
.	.	.	.	.	.	2b\	-tus
=16-	=16-	=16-	=16-	=16-	=16-	=16-	=16-
!	!	!	!	!LO:SIC:v:t=custos e	!	!	!
2C/	-(ae)	1G	-(ae)	1e	-(ae)	2cc\	eſt
*	*	*	*	*xywh-#468:1040,1778,3404,662	*	*	*
!	!	!	!	!LO:LB:g=original	!	!	!
2E\	lo-	.	.	.	.	2g/	lo-
2C/	-cu-	1A	di-	1r	.	2e/	-cu-
2D/	-tus	.	.	.	.	2f/	-tus
=17-	=17-	=17-	=17-	=17-	=17-	=17-	=17-
!	!	!LO:SIC:v:t=custos c	!	!	!	!	!
2E\	eſt	2G/	-cens	2r	.	2g/	eſt
*	*	*xywh-#316:1138,1648,3370,807	*	*	*	*	*
!	!	!LO:LB:g=original	!	!	!	!	!
*	*	*	*	*	*ij	*	*
2E\	Ma-	2.c\	lo-	2e\	lo-	2g/	Ma-
1F	-ri-	.	.	2c/	-cu-	1a	-ri-
.	.	4B\	.	.	.	.	.
.	.	2A/	.	2d\	-tus	.	.
=18-	=18-	=18-	=18-	=18-	=18-	=18-	=18-
2E\	-(ae)	2B\	-cu-	2e\	eſt	2g/	-(ae)
2A\	lo-	2c\	-tus	2e\	Ma-	2cc\	lo
2F\	-cu-	1d	eſt	1f	-ri-	2a\	cu
!	!	!	!	!	!	!LO:SIC:v:t=custos c	!
2G\	-tus	.	.	.	.	2b\	tus
*	*	*	*	*	*	*xywh-#620:1144,2312,3387,635	*
!	!	!	!	!	!	!LO:LB:g=original	!
=19-	=19-	=19-	=19-	=19-	=19-	=19-	=19-
2A\	eſt	2c\	Ma-	2e\	-(ae)	2cc\	eſt
*	*	*	*	*	*Xij	*	*
2A\	Ma-	1f	-ri-	2a\	lo-	2cc\	Ma-
1B-X	-ri-	.	.	2f\	-cu-	1dd	-ri-
.	.	4e\	.	2g\	-tus	.	.
.	.	4d\	.	.	.	.	.
=20-	=20-	=20-	=20-	=20-	=20-	=20-	=20-
1A	-(ae)	2e\	.	2a\	eſt	2cc\	-(ae)
.	.	2c\	-(ae)	2e\	Ma-	2.a\	di-
0.D	di-	4f\	di-	2d\	-ri-	.	.
.	.	4e\	.	.	.	4g/	.
.	.	4d\	.	2A/	-(ae)	4f/	.
.	.	4c\	.	.	.	4e/	.
=21-	=21-	=21-	=21-	=21-	=21-	=21-	=21-
.	.	2d\	.	1r	.	2f#X/	.
.	.	4c\	.	.	.	2.g/	.
.	.	4B\	.	.	.	.	.
.	.	1A	.	1d	di-	.	.
.	.	.	.	.	.	8f#/	.
.	.	.	.	.	.	8e/	.
.	.	.	.	.	.	2f#X/	.
=22-	=22-	=22-	=22-	=22-	=22-	=22-	=22-
0GG	-cens	0B	-cens	0d	-cens	0g	-cens
=23-	=23-	=23-	=23-	=23-	=23-	=23-	=23-
!LO:SIC:v:t=custos C	!	!	!	!	!	!	!
1C	A-	1G	A-	1c	A-	1e	A-
*xywh-#164:1136,2361,3392,658	*	*	*	*	*	*	*
!LO:LB:g=original	!	!LO:SIC:v:t=custos A	!	!	!	!	!
1C	-ue	1G	-ue	1c	-ue	1e	-ue
*	*	*xywh-#316:982,2196,3514,750	*	*	*	*	*
!	!	!LO:LB:g=original	!	!	!	!	!
=24-	=24-	=24-	=24-	=24-	=24-	=24-	=24-
2.AA/	gra-	2.A/	gra-	2.c#X/	gra-	2.e/	gra-
!	!	!	!	!LO:SIC:v:t=custos c	!	!	!
4AA/	-ti-	4A/	-ti-	4c#/	-ti-	4e/	-ti-
*	*	*	*	*xywh-#468:966,2278,3467,696	*	*	*
!	!	!	!	!LO:LB:g=original	!	!	!
2AA/	-a	2A/	-a	2c#/	-a	2e/	-a
1D/	ple-	1A\	ple-	1d\	ple-	1f#X/	ple-
=25-	=25-	=25-	=25-	=25-	=25-	=25-	=25-
.	.	.	.	.	.	.	.
!	!	!	!	!	!	!LO:SIC:v:t=custos g	!
2GG/	-na	2B\	-na	2d\	-na	2g/	-na
*	*	*	*	*	*	*xywh-#620:1167,2848,3376,653	*
!	!	!	!	!	!	!LO:LB:g=original	!
2.C/	do-	2.c\	do-	2.e\	do-	2.g/	do-
4C/	-mi-	4c\	-mi-	4e\	-mi-	4g/	-mi-
=26-	=26-	=26-	=26-	=26-	=26-	=26-	=26-
1C	-nus	1c	-nus	1.e	-nus	0g	-nus
1E	te-	1B	te-	.	.	.	.
.	.	.	.	1g\	te-	.	.
=27-	=27-	=27-	=27-	=27-	=27-	=27-	=27-
0D	-cum	0d	-cum	.	.	0a	te-
.	.	.	.	4f#X\	.	.	.
.	.	.	.	4e\	.	.	.
.	.	.	.	1f#X	.	.	.
=28-	=28-	=28-	=28-	=28-	=28-	=28-	=28-
2.G\	be-	2r	.	1g	-cum	1b	-cum
.	.	2.d\	ne-	.	.	.	.
4G\	-ne-	.	.	.	.	.	.
2F\	-di-	.	.	1r	.	1r	.
.	.	4d\	-ne-	.	.	.	.
2E\	-cta	1c\	-di-	.	.	.	.
=29-	=29-	=29-	=29-	=29-	=29-	=29-	=29-
1G	tu	.	.	2.g\	be-	2r	.
.	.	2B\	-cta	.	.	2.dd\	be-
.	.	.	.	4g\	-ne-	.	.
1r	.	1A	tu	2fny\	-di-	.	.
.	.	.	.	.	.	4dd\	-ne-
.	.	.	.	2e\	-cta	1cc\	-di-
=30-	=30-	=30-	=30-	=30-	=30-	=30-	=30-
2.G\	be-	2r	.	1g	tu	.	.
*	*	*	*ij	*	*	*	*
.	.	2.d\	be-	.	.	2b\	-cta
4G\	-ne-	.	.	.	.	.	.
!LO:SIC:v:t=custos E	!	!	!	!	!	!	!
1F	-di-	.	.	1r	.	1a	tu
*xywh-#164:1172,2892,3371,665	*	*	*	*	*	*	*
!LO:LB:g=original	!	!	!	!	!	!	!
.	.	4d\	-ne-	.	.	.	.
.	.	1c\	-di-	.	.	.	.
=31-	=31-	=31-	=31-	=31-	=31-	=31-	=31-
2E\	-cta	.	.	1r	.	2r	.
1G	tu	2B\	-cta	.	.	2.g/	be-
!	!	!LO:SIC:v:t=custos d	!	!	!	!	!
.	.	1d	tu	2r	.	.	.
*	*	*xywh-#316:1080,2785,3399,750	*	*	*	*	*
!	!	!LO:LB:g=original	!	!	!	!	!
*	*	*	*Xij	*	*	*	*
.	.	.	.	.	.	4g/	-ne-
2D/	in	.	.	2.d\	be-	1fny/	-di-
=32-	=32-	=32-	=32-	=32-	=32-	=32-	=32-
1A	mu-	0r	.	.	.	.	.
.	.	.	.	4d\	-ne-	.	.
.	.	.	.	1cny	-di-	2e/	-cta
1G	-li-	.	.	.	.	2g/	tu
!	!	!	!	!LO:SIC:v:t=custos d	!	!	!
.	.	.	.	2B/	-cta	2d/	in
*	*	*	*	*xywh-#468:1074,2882,3350,662	*	*	*
!	!	!	!	!LO:LB:g=original	!	!	!
=33-	=33-	=33-	=33-	=33-	=33-	=33-	=33-
2.F\	-e-	1r	.	2d\	tu	2.a\	mu-
.	.	.	.	1A	in	.	.
!	!	!	!	!	!	!LO:SIC:v:t=custos f	!
4E\	.	.	.	.	.	4g/	-li-
*	*	*	*	*	*	*xywh-#620:1103,3373,3440,635	*
!	!	!	!	!	!	!LO:LB:g=original	!
2D/	.	2r	.	.	.	2f/	-e-
2D/	-ri-	2.d\	be-	1a\	mu-	2f/	-ri-
=34-	=34-	=34-	=34-	=34-	=34-	=34-	=34-
1A	-bus	.	.	.	.	2.e/	-bus
.	.	4d\	-ne-	.	.	.	.
.	.	1c	-di-	2.e\	-li-	.	.
.	.	.	.	.	.	4f/	.
1r	.	.	.	.	.	4g/	.
.	.	.	.	4f\	.	4a\	.
.	.	2B\	-cta	1g\	.	4b\	.
.	.	.	.	.	.	4g/	.
=35-	=35-	=35-	=35-	=35-	=35-	=35-	=35-
2r	.	1d	tu	.	.	2.a\	.
2.D/	be-	.	.	4f\	.	.	.
.	.	.	.	4e\	.	4g/	.
.	.	2d\	in	2f\	.	4a\	.
4D/	-ne-	.	.	.	.	4b\	.
1C/	-di-	2G/	mu-	1e\	-e-	4cc\	.
.	.	.	.	.	.	4b\	.
=36-	=36-	=36-	=36-	=36-	=36-	=36-	=36-
.	.	2A/	-li-	.	.	4a\	.
.	.	.	.	.	.	4e/	.
2BB/	-cta	2.B\	-e-	2d\	-ri-	2.g/	.
1D	tu	.	.	1d	-bus	.	.
.	.	4A/	.	.	.	4f#X/	.
.	.	4A/	.	.	.	4f#/	.
.	.	8G/	.	.	.	8e/	.
.	.	8A/	.	.	.	8f#X/	.
=37-	=37-	=37-	=37-	=37-	=37-	=37-	=37-
!	!	!	!	!	!	!LO:SIC:v:t=custos d	!
1G	in	4B\	.	2r	.	1g	.
*	*	*	*	*	*	*xywh-#620:1149,3933,3387,641	*
!	!	!	!	!	!	!LO:LB:g=original	!
.	.	4c\	.	.	.	.	.
.	.	4d\	.	2.g\	be-	.	.
.	.	4B\	.	.	.	.	.
2C/	mu-	2c\	.	.	.	2r	.
.	.	.	.	4g\	-ne-	.	.
!LO:SIC:v:t=custos E	!	!	!	!	!	!	!
2D/	-li-	2A/	-ri-	2f\	-di-	2.dd\	be-
*xywh-#164:1143,3445,3406,651	*	*	*	*	*	*	*
!LO:LB:g=original	!	!	!	!	!	!	!
=38-	=38-	=38-	=38-	=38-	=38-	=38-	=38-
2.E\	-e-	1G	-bus	2e\	-cta	.	.
.	.	.	.	.	.	4cc\	-ne-
.	.	.	.	2.g\	tu	1cc	-di-
4F\	.	.	.	.	.	.	.
2G\	.	2.d\	be-	.	.	.	.
.	.	.	.	8f\	.	.	.
.	.	.	.	8e\	.	.	.
2G\	-ri-	.	.	2d\	.	2b\	-cta
!	!	!LO:SIC:v:t=custos c	!	!	!	!	!
.	.	4d\	-ne-	.	.	.	.
*	*	*xywh-#316:941,3350,3549,704	*	*	*	*	*
!	!	!LO:LB:g=original	!	!	!	!	!
=39-	=39-	=39-	=39-	=39-	=39-	=39-	=39-
2C/	-bus	2c\	-di-	2r	.	2g/	tu
2.G\	be-	2B\	-cta	2d\	in	2.b\	be-
!	!	!	!	!LO:SIC:v:t=custos A	!	!	!
.	.	2d\	tu	2G/	mu-	.	.
*	*	*	*	*xywh-#468:996,3421,3443,672	*	*	*
!	!	!	!	!LO:LB:g=original	!	!	!
4G\	-ne-	.	.	.	.	4b\	-ne-
2F\	-di-	2d\	in	2A/	-li-	2.a\	-di-
=40-	=40-	=40-	=40-	=40-	=40-	=40-	=40-
1E	-cta	1G	mu-	2.B/	-e-	.	.
.	.	.	.	.	.	4g/	.
.	.	.	.	.	.	1g	.
.	.	.	.	4c/	.	.	.
1D	tu	1A	-li-	2d\	.	.	.
.	.	.	.	2d\	-ri-	2fny/	-cta
=41-	=41-	=41-	=41-	=41-	=41-	=41-	=41-
2r	.	2.B\	-e-	2G/	-bus	2d/	tu
2.G\	be-	.	.	2.B/	be-	2dd\	in
.	.	4c\	.	.	.	.	.
.	.	2d\	.	.	.	2g/	mu-
4G\	-ne-	.	.	4B/	-ne-	.	.
2F\	-di-	2d\	-ri-	2A/	-di-	2a\	-li-
=42-	=42-	=42-	=42-	=42-	=42-	=42-	=42-
2E\	-cta	2.G/	-bus	2e\	-cta	2.b\	-e-
1G	tu	.	.	1d	tu	.	.
.	.	4A/	.	.	.	4cc\	.
.	.	2B\	.	.	.	2.dd\	.
2D/	in	2A/	in	2f#X\	in	.	.
.	.	.	.	.	.	4cc\	.
=43-	=43-	=43-	=43-	=43-	=43-	=43-	=43-
!	!	!	!	!	!	!LO:SIC:v:t=custos a	!
2GG/	mu-	2d\	mu-	2g\	mu-	2b\	.
*	*	*	*	*	*	*xywh-#620:1143,4463,3399,688	*
!	!	!	!	!	!	!LO:LB:g=original	!
2AA/	-li-	2c\	-li-	2e\	-li-	2.a\	.
2.BB/	-e-	1B	-e-	0d	-e-	.	.
.	.	.	.	.	.	4g/	.
.	.	.	.	.	.	1g\	.
4C/	.	.	.	.	.	.	.
=44-	=44-	=44-	=44-	=44-	=44-	=44-	=44-
1D	.	0A	-ri-	.	.	.	.
.	.	.	.	.	.	4f/	.
.	.	.	.	.	.	4e/	.
1D	-ri-	.	.	1d	-ri-	2f#X/	.
.	.	.	.	.	.	2f#/	-ri-
=45-	=45-	=45-	=45-	=45-	=45-	=45-	=45-
0GG	-bus.	0G	-bus.	0d	-bus.	0g	-bus.
=-	=-	=-	=-	=-	=-	=-	=-
*-	*-	*-	*-	*-	*-	*-	*-
!!!system-decoration: [(s1,s2,s3,s4)]
!!!ENC: Mateusz Solarz
!!!END: 2022-06-30
!!!ENC: Julita Ruszuk
!!!END: 2022-07-05
!!!ENC-iiif: Lidia Bialucha
!!!END-iiif: 2022-09-04
!!!YEC: Copyright 2022 Narodowy Instytut Fryderyka Chopina (https://polishscores.org)
!!!YEM: License CC-BY-4.0 (https://creativecommons.org/licenses/by/4.0)
